!!!!SEGMENT: pl-wtm--r-2019--001_smietanski-emil-wladyslaw--impromptu-op-13.krn
!!!cenid: 18xx:2000
!!!COM: Śmietański, Emil Władysław
!!!COM-rismID: pe50041781
!!!CDT: 1845-1886
!!!CNT: Polish
!!!OTL: Impromptu op. 13
!!!PDT: 1866
!!!AGN: Secular
!!!SMS-siglum: PL-Wtm
!!!SMS-shelfmark: R 2019
!!!SMS-shelfwork: 001 W
!!!SMS-variant:
!!!SMS-altvar:
!!!NIFC-rismSourceID: 1001112332
!!!NIFC-islandoraID: pl-wtm:29450
!!!URL-pdf-islandora: https://repozytorium.nifc.pl/islandora/object/pl-wtm%3A29450/datastream/PDF/view
!!!URL-scan: https://polish.musicsources.pl/pl/lokalizacje/galeria/rekopisy/6511 @EN{Scan on Polish Music Herritage in Open Access Website} @PL{Skany w portalu Dziedzictwo Muzyki Polskiej w otwartym dostępie}
!!!ONB-nifc: UWAGA: w zbiorze 1. Impromptu i 2. Grenouilles Polka
!!!AIN: 2 piano
!!!key:
**kern	**kern	**dynam
*part2	*part1	*part1
*staff2	*staff1	*
*Ipiano	*Ipiano	*
*I"Piano	*I"Piano	*
*	*I'P-no	*
*clefF4	*clefG2	*
*k[]	*k[]	*
*C:	*C:	*
*M4/4	*M4/4	*
*met(c)	*met(c)	*
*	*8va	*
=1	=1	=1
4C/ 4CC^^</	16eeee\LL 16eee\	ff
.	16dddd\ 16ddd\	.
.	16cccc\ 16ccc\	.
.	16bbb\ 16bb\	.
8.e\L 8.c\ 8.G\ 8.E\	16aaa\ 16aa\	.
.	16ggg\ 16gg\	.
*	*X8va	*
.	16fff\ 16ff\	.
16e\Jk 16c\ 16G\ 16E\	16eee\ 16ee\	.
4e\ 4c\ 4G\ 4E\	16ddd\ 16dd\	.
.	16ccc\ 16cc\	.
.	16bb\ 16b\	.
.	16aa\ 16a\	.
4e\ 4c\ 4G\ 4E\	16gg\ 16g\	.
.	16ff\ 16f\	.
.	16ee\ 16e\	.
.	16dd\JJ 16d\	.
=2	=2	=2
4BB/ 4BBB^^/	4cc/ 4c/	.
8.c\L 8.G\ 8.E\	8.cc/L 8.g/ 8.e/	.
16c\Jk 16G\ 16E\	16cc/Jk 16g/ 16e/	.
4c\ 4G\ 4E\	4cc/ 4g/ 4e/	.
4c\ 4G\ 4E\	4cc/ 4g/ 4e/	.
=3	=3	=3
*	*8va	*
4AA/ 4AAA^^/	16eeee\LL 16eee\	.
.	16dddd\ 16ddd\	.
.	16cccc\ 16ccc\	.
.	16bbb\ 16bb\	.
*	*X8va	*
8.e\L 8.c\ 8.A\ 8.E\	16aaa\ 16aa\	.
.	16ggg\ 16gg\	.
.	16fff\ 16ff\	.
16e\Jk 16c\ 16A\ 16E\	16eee\ 16ee\	.
4e\ 4c\ 4A\ 4E\	16ddd\ 16dd\	.
.	16ccc\ 16cc\	.
.	16bb\ 16b\	.
.	16aa\ 16a\	.
4e\ 4c\ 4A\ 4E\	16gg\ 16g\	.
.	16ff\ 16f\	.
.	16ee\ 16e\	.
.	16dd\JJ 16d\	.
!!LO:LB:g=original
=4	=4	=4
4GG#X/ 4GGG#X^^/	4cc/ 4c/	.
8.c\L 8.G#X\ 8.E\	8.cc/L 8.g#X/ 8.e/	.
16c\Jk 16G#\ 16E\	16cc/Jk 16g#/ 16e/	.
4c\ 4G#\ 4E\	4cc/ 4g#/ 4e/	.
4c\ 4G#\ 4E\	4cc/ 4g#/ 4e/	.
=5	=5	=5
*	*8va	*
4GGn/ 4GGGn^^/	16eeee\LL 16eee\	.
.	16dddd\ 16ddd\	.
.	16cccc\ 16ccc\	.
.	16bbb\ 16bb\	.
*	*X8va	*
8.e\L 8.c\ 8.G\ 8.E\	16aaa\ 16aa\	.
.	16ggg\ 16gg\	.
.	16fff\ 16ff\	.
16e\Jk 16c\ 16G\ 16E\	16eee\ 16ee\	.
4e\ 4c\ 4G\ 4E\	16ddd\ 16dd\	.
.	16ccc\ 16cc\	.
.	16bb\ 16b\	.
.	16aa\ 16a\	.
4e\ 4c\ 4G\ 4E\	16gg\ 16g\	.
.	16ff\ 16f\	.
.	16ee\ 16e\	.
.	16dd\JJ 16d\	.
=6	=6	=6
4FF#X/ 4FFF#X^^/	4cc\ 4c\	.
8.c\L 8.A\ 8.E\	8.cc\L 8.a\ 8.e\	.
16c\Jk 16A\ 16E\	16cc\Jk 16a\ 16e\	.
4c\ 4A\ 4E\	4cc\ 4a\ 4e\	.
4c\ 4A\ 4E\	4cc\ 4a\ 4e\	.
=7	=7	=7
*	*8va	*
4GG/ 4GGG/	16aaaa\LL 16aaa\	pp
.	16gggg\ 16ggg\	.
.	16ffff\ 16fff\	.
.	16eeee\ 16eee\	.
8.g\L 8.f\ 8.d\ 8.c\ 8.G\	16dddd\ 16ddd\	.
.	16cccc\ 16ccc\	.
.	16bbb\ 16bb\	.
16g\Jk 16f\ 16d\ 16c\ 16G\	16aaa\ 16aa\	.
*	*X8va	*
4g\ 4f\ 4d\ 4B\ 4G\	16ggg\ 16gg\	.
.	16fff\ 16ff\	.
.	16eee\ 16ee\	.
.	16ddd\ 16dd\	.
4g\ 4f\ 4d\ 4B\ 4G\	16ccc\ 16cc\	.
.	16bb\ 16b\	.
.	16aa\ 16a\	.
.	16gg\JJ 16g\	.
!!LO:LB:g=original
=8	=8	=8
4C/ 4CC/	4ccc\ 4cc\	.
8.c\L 8.G\ 8.E\	8.cc\L 8.g\ 8.e\	.
16c\Jk 16G\ 16E\	16cc\Jk 16g\ 16e\	.
4c\ 4G\ 4E\	4cc\ 4g\ 4e\	.
4c\ 4G\ 4E\	4cc\ 4g\ 4e\	.
=9||	=9||	=9||
4e\ 4G\ 4C\	1gg\TT	.
!LO:TX:b:t=ms	!	!
8.ee>\L 8.cc>\	.	.
16dd>\Jk 16g>\	.	.
4cc>\ 4e>\	.	.
4cc>\ 4e>\	.	.
=10	=10	=10
4B\ 4F\ 4GG\	1gg\TT	.
8.ff>\L 8.dd>\	.	.
16ee>\Jk 16cc>\	.	.
4dd>\ 4g>\	.	.
4dd>\ 4g>\	.	.
=11	=11	=11
*	*8va	*
4GG\	16aaaa\LL 16aaa\	.
.	16gggg\ 16ggg\	.
.	16ffff\ 16fff\	.
.	16eeee\ 16eee\	.
8.g\L 8.f\ 8.d\ 8.c\ 8.G\	16dddd\ 16ddd\	.
.	16cccc\ 16ccc\	.
.	16bbb\ 16bb\	.
16g\Jk 16f\ 16d\ 16c\ 16G\	16aaa\ 16aa\	.
*	*X8va	*
4g\ 4f\ 4d\ 4B\ 4G\	16ggg\ 16gg\	.
.	16fff\ 16ff\	.
.	16eee\ 16ee\	.
.	16ddd\ 16dd\	.
4g\ 4f\ 4d\ 4B\ 4G\	16ccc\ 16cc\	.
.	16bb\ 16b\	.
.	16aa\ 16a\	.
.	16gg\JJ 16g\	.
!!LO:LB:g=original
=12	=12	=12
4C/ 4CC/	4ccc\ 4cc\	.
8.c\L 8.G\ 8.E\	8.cc\L 8.g\ 8.e\	.
16c\Jk 16G\ 16E\	16cc\Jk 16g\ 16e\	.
4c\ 4G\ 4E\	4cc\ 4g\ 4e\	.
4c\ 4G\ 4E\	4cc\ 4g\ 4e\	.
=13	=13	=13
4e\ 4G\ 4C\	1gg\TT	.
8.ee>\L 8.cc>\	.	.
16dd>\Jk 16g>\	.	.
4cc>\ 4e>\	.	.
4cc>\ 4e>\	.	.
=14	=14	=14
4B\ 4F\ 4GG\	1gg\TT	.
8.ff>\L 8.dd>\	.	.
16ee>\Jk 16cc>\	.	.
4dd>\ 4g>\	.	.
4dd>\ 4g>\	.	.
=15	=15	=15
*	*8va	*
4GG\	16aaaa\LL 16aaa\	.
.	16gggg\ 16ggg\	.
.	16ffff\ 16fff\	.
.	16eeee\ 16eee\	.
8.g\L 8.f\ 8.d\ 8.c\ 8.G\	16dddd\ 16ddd\	.
.	16cccc\ 16ccc\	.
.	16bbb\ 16bb\	.
16g\Jk 16f\ 16d\ 16c\ 16G\	16aaa\ 16aa\	.
*	*X8va	*
4g\ 4f\ 4d\ 4B\ 4G\	16ggg\ 16gg\	.
.	16fff\ 16ff\	.
.	16eee\ 16ee\	.
.	16ddd\ 16dd\	.
4g\ 4f\ 4d\ 4B\ 4G\	16ccc\ 16cc\	.
.	16bb\ 16b\	.
.	16aa\ 16a\	.
.	16gg\JJ 16g\	.
=16	=16	=16
4C/ 4CC/	4ccc\ 4cc\	.
8.c\L 8.G\ 8.C\	8.cc\L 8.g\ 8.e\	.
16c\Jk	16cc\Jk	.
!	!LO:TX:b:t=rall.	!
4d-X\	4dd-X\	.
4dn\	4ddn\	.
!!LO:LB:g=original
=17||	=17||	=17||
*k[b-e-a-d-]	*k[b-e-a-d-]	*
.	qq4ddn\	.
!LO:TUP:a:problem=klamra łuko	!LO:TX:b:t=con espressione	!
12AA-/L	2.ee-TT\	p
*clefG2	*	*
12e-/	.	.
12a-/J	.	.
*Xtuplet	*	*
12cc/L	.	.
12a-/	.	.
12e-/J	.	.
12c/L	.	.
12e-/	.	.
12a-/J	.	.
.	16qqddn\LL	.
.	16qqee-\JJ	.
12cc/L	8ccc\L	.
12a-/	.	.
.	8bb-\J	.
12e-/J	.	.
*clefF4	*	*
=18	=18	=18
12AA-/L	4aa-\ 4cc\	.
*clefG2	*	*
12e-/	.	.
12a-/J	.	.
12cc/L	8.ee-\L	.
12a-/	.	.
12e-/J	.	.
.	16ee-\Jk	.
12c/L	4ee-\ 4cc\	.
12e-/	.	.
12a-/J	.	.
12cc/L	4ee-\	.
12a-/	.	.
12e-/J	.	.
=19	=19	=19
*clefF4	*	*
12GG\L	2.ee-TT\	.
*clefG2	*	*
12e-\	.	.
12b-\J	.	.
12dd-\L	.	.
12b-\	.	.
12e-\J	.	.
12G/L	.	.
12e-/	.	.
12b-/J	.	.
.	16qqddn\LL	.
.	16qqee-\JJ	.
12dd-/L	8ddd-\L	.
12b-/	.	.
.	8ccc\J	.
12e-/J	.	.
=20	=20	=20
12E-/L	4bb-\ 4dd-\	.
12e-/	.	.
12g/J	.	.
12dd-/L	8.ee-\L	.
12g/	.	.
12e-/J	.	.
.	16ee-\Jk	.
12d-/L	4ee-\ 4dd-\	.
12e-/	.	.
12g/J	.	.
12dd-/L	4ee-\	.
12g/	.	.
12e-/J	.	.
!!LO:LB:g=original
=21	=21	=21
*	*2\right	*
12E-/L	2fffTT\	.
12g/	.	.
12dd-/J	.	.
12gg/L	.	.
12dd-/	.	.
12g/J	.	.
12e-/L	2eeentt\	.
12g/	.	.
12dd-/J	.	.
12gg/L	.	.
12dd-/	.	.
12g/J	.	.
=22	=22	=22
12E-/L	2eee-XTT\	.
12g/	.	.
12dd-/J	.	.
12gg/L	.	.
12dd-/	.	.
12g/J	.	.
12e-/L	2ddd-TT\	.
12g/	.	.
12dd-/J	.	.
12gg/L	.	.
12dd-/	.	.
12g/J	.	.
*clefF4	*	*
=23	=23	=23
!	!LO:TX:b:t=con eleganza.	!
12AA-\L	2.ccctt\	.
*clefG2	*	*
12e-\	.	.
12a-\J	.	.
12ee-\L	.	.
12a-\	.	.
12e-\J	.	.
12c\L	.	.
12e-\	.	.
12a-\J	.	.
.	16qqbbn/LL	.
.	16qqccc/JJ	.
12ee-\L	16bbb-\LL	.
.	16aaa-\	.
12a-\	.	.
.	16eee-\	.
12e-\J	.	.
.	16ccc\JJ	.
*clefF4	*	*
=24	=24	=24
12AA-\L	2.bbntt\	.
*clefG2	*	*
12dn\	.	.
12a-\J	.	.
12ddn\L	.	.
12a-\	.	.
12e-\J	.	.
12Bn\L	.	.
12d\	.	.
12a-\J	.	.
.	16qqbb-X/LL	.
.	16qqbbn/JJ	.
12dd\L	16ggg\LL	.
.	16fff\	.
12a-\	.	.
.	16bb\	.
12d\J	.	.
.	16ff\JJ	.
*clefF4	*	*
!!LO:LB:g=original
=25	=25	=25
.	32qqddn\	.
12AA-\L	2.ee-TT\	.
*clefG2	*	*
12e-\	.	.
12a-\J	.	.
12cc\L	.	.
12a-\	.	.
12e-\J	.	.
12c\L	.	.
12e-\	.	.
12a-\J	.	.
.	16qqddn\LL	.
.	16qqee-\JJ	.
12cc\L	8ccc\L	.
12a-\	.	.
.	8bb-\J	.
12e-\J	.	.
*clefF4	*	*
=26	=26	=26
12AA-\L	4aa-\ 4cc\	.
*clefG2	*	*
12e-\	.	.
12a-\J	.	.
12cc\L	8.ee-\L	.
12a-\	.	.
12e-\J	.	.
.	16ee-\Jk	.
12c\L	4ee-\ 4cc\	.
12e-\	.	.
12a-\J	.	.
12cc\L	4ee-\	.
12a-\	.	.
12e-\J	.	.
*clefF4	*	*
=27	=27	=27
*	*2\left	*
12FF#X\L	2.ee-T\	.
*clefG2	*	*
12e-\	.	.
12an\J	.	.
12cc\L	.	.
12a\	.	.
12e-\J	.	.
12c\L	.	.
12e-\	.	.
12a\J	.	.
!	!LO:TX:b:t=cres-cen-do-al:ext2=cd:problem=dynamics with extention lines	!LO:HP:t=crescendoal
.	16qqddn\LL	<
.	16qqee-\JJ	.
12cc\L	8ccc\L	.
12a\	.	.
.	8bbn\J	.
12e-\J	.	.
*clefF4	*	*
=28	=28	=28
12FF#X\L	4aan\ 4cc\	.
*clefG2	*	*
12e-\	.	.
12an\J	.	.
12cc\L	8.ee-\L	.
12a\	.	.
12e-\J	.	.
.	16ee-\Jk	.
12c\L	4ee-\ 4cc\	.
12e-\	.	.
12a\J	.	.
12cc\L	4ee-\	.
12a\	.	.
12e-\J	.	.
*clefF4	*	*
!!LO:LB:g=original
=29	=29	=29
*k[]	*k[]	*
4G\	2ggTT/	.
!LO:TX:a:t=ms	!	!
8.ee>\L 8.cc>\	.	.
16dd>\Jk 16g>\	.	.
4cc>\ 4e>\	2ggTT/	.
4cc>\ 4e>\	.	.
=30	=30	=30
4G\	2ggTT\	.
8.ee>\L 8.cc>\	.	.
16dd>\Jk 16g>\	.	.
4cc>\ 4e>\	2ggTT/	.
4cc>\ 4e>\	.	.
=31	=31	=31
4b>\: 4f>\: 4B>\: 4G>:\	1gg\TT	.
4r	.	.
4GG\	.	.
4r	.	.
=32	=32	=32
2GG/ 2GGG/	32F/LLL	.
.	32B/	.
.	32d/	.
.	32g/	.
.	32f/	.
.	32b/	.
.	32dd/	.
.	32gg/JJJ	.
.	32ff\LLL	.
.	32bb\	.
.	32ddd\	.
.	32ggg\	.
*	*8va	*
.	32fff\	.
.	32bbb\	.
.	32dddd\JJJ	.
.	32ryy	.
*	*X8va	*
4r	8ggg\	.
.	8r	[
4G\	4ryy	.
!!LO:PB:g=original
=33||	=33||	=33||
*	*8va	*
4C/ 4CC/	16eeee\LL 16eee\	ff
.	16dddd\ 16ddd\	[
.	16cccc\ 16ccc\	.
.	16bbb\ 16bb\	.
*	*X8va	*
8.e\L 8.c\ 8.G\ 8.E\	16aaa\ 16aa\	.
.	16ggg\ 16gg\	.
.	16fff\ 16ff\	.
16e\Jk 16c\ 16G\ 16E\	16eee\ 16ee\	.
4e\ 4c\ 4G\ 4E\	16ddd\ 16dd\	.
.	16ccc\ 16cc\	.
.	16bb\ 16b\	.
.	16aa\ 16a\	.
4e\ 4c\ 4G\ 4E\	16gg\ 16g\	.
.	16ff\ 16f\	.
.	16ee\ 16e\	.
.	16dd\JJ 16d\	.
=34	=34	=34
4BB/ 4BBB/	4cc\ 4c\	.
8.c\L 8.G\ 8.E\	8.cc\L 8.g\ 8.e\	.
16c\Jk 16G\ 16E\	16cc\Jk 16g\ 16e\	.
4c\ 4G\ 4E\	4cc\ 4g\ 4e\	.
4c\ 4G\ 4E\	4cc\ 4g\ 4e\	.
=35	=35	=35
*	*8va	*
4AA/ 4AAA/	16eeee\LL 16eee\	.
.	16dddd\ 16ddd\	.
.	16cccc\ 16ccc\	.
.	16bbb\ 16bb\	.
*	*X8va	*
8.e\L 8.c\ 8.A\ 8.E\	16aaa\ 16aa\	.
.	16ggg\ 16gg\	.
.	16fff\ 16ff\	.
16e\Jk 16c\ 16A\ 16E\	16eee\ 16ee\	.
4e\ 4c\ 4A\ 4E\	16ddd\ 16dd\	.
.	16ccc\ 16cc\	.
.	16bb\ 16b\	.
.	16aa\ 16a\	.
4e\ 4c\ 4A\ 4E\	16gg\ 16g\	.
.	16ff\ 16f\	.
.	16ee\ 16e\	.
.	16dd\JJ 16d\	.
=36	=36	=36
4GG#X/ 4GGG#X/	4cc\ 4c\	.
8.c\L 8.G#X\ 8.E\	8.cc\L 8.g#X\ 8.e\	.
16c\Jk 16G#\ 16E\	16cc\Jk 16g#\ 16e\	.
4c\ 4G#\ 4E\	4cc\ 4g#\ 4e\	.
4c\ 4G#\ 4E\	4cc\ 4g#\ 4e\	.
!!LO:LB:g=original
=37	=37	=37
*	*8va	*
4GGn/ 4GGGn/	16eeee\LL 16eee\	.
.	16dddd\ 16ddd\	.
.	16cccc\ 16ccc\	.
.	16bbb\ 16bb\	.
*	*X8va	*
8.e\L 8.c\ 8.G\ 8.E\	16aaa\ 16aa\	.
.	16ggg\ 16gg\	.
.	16fff\ 16ff\	.
16e\Jk 16c\ 16G\ 16E\	16eee\ 16ee\	.
4e\ 4c\ 4G\ 4E\	16ddd\ 16dd\	.
.	16ccc\ 16cc\	.
.	16bb\ 16b\	.
.	16aa\ 16a\	.
4e\ 4c\ 4G\ 4E\	16gg\ 16g\	.
.	16ff\ 16f\	.
.	16ee\ 16e\	.
.	16dd\JJ 16d\	.
=38	=38	=38
4FF#X/ 4FFF#X/	4cc\ 4c\	.
8.c\L 8.A\ 8.E\	8.cc\L 8.a\ 8.e\	.
16c\Jk 16A\ 16E\	16cc\Jk 16a\ 16e\	.
4c\ 4A\ 4E\	4cc\ 4a\ 4e\	.
4c\ 4A\ 4E\	4cc\ 4a\ 4e\	.
=39	=39	=39
*	*8va	*
4GG/ 4GGG/	16aaaa\LL 16aaa\	pp
.	16gggg\ 16ggg\	.
.	16ffff\ 16fff\	.
.	16eeee\ 16eee\	.
8.g\L 8.f\ 8.d\ 8.c\ 8.G\	16dddd\ 16ddd\	.
.	16cccc\ 16ccc\	.
.	16bbb\ 16bb\	.
16g\Jk 16f\ 16d\ 16c\ 16G\	16aaa\ 16aa\	.
*	*X8va	*
4g\ 4f\ 4d\ 4B\ 4G\	16ggg\ 16gg\	.
.	16fff\ 16ff\	.
.	16eee\ 16ee\	.
.	16ddd\ 16dd\	.
4g\ 4f\ 4d\ 4B\ 4G\	16ccc\ 16cc\	.
.	16bb\ 16b\	.
.	16aa\ 16a\	.
.	16gg\JJ 16g\	.
=40	=40	=40
4C/ 4CC/	4ccc\ 4cc\	.
8.c\L 8.G\ 8.E\	8.cc\L 8.g\ 8.e\	.
16c\Jk 16G\ 16E\	16cc\Jk 16g\ 16e\	.
4c\ 4G\ 4E\	4cc\ 4g\ 4e\	.
4c\ 4G\ 4E\	4cc\ 4g\ 4e\	.
!!LO:LB:g=original
=41||	=41||	=41||
*	*2\right	*
4e\ 4G\ 4C\	2ggTT\	p
8.ee>\L 8.cc>\	.	.
16dd>\Jk 16g>\	.	.
4cc>\ 4e>\	2ggTT\	.
4cc>\ 4e>\	.	.
=42	=42	=42
4A\ 4D\	1gg\TT	.
8.ff>\L 8.dd>\	.	.
16ee>\Jk 16cc>\	.	.
4dd>\ 4g>\	.	.
4dd>\ 4g>\	.	.
=43	=43	=43
*	*8va	*
4GG/	16aaaa\LL 16aaa\	.
.	16gggg\ 16ggg\	.
.	16ffff\ 16fff\	.
.	16eeee\ 16eee\	.
8.g\L 8.f\ 8.d\ 8.c\ 8.G\	16dddd\ 16ddd\	.
.	16cccc\ 16ccc\	.
.	16bbb\ 16bb\	.
16g\Jk 16f\ 16d\ 16c\ 16G\	16aaa\ 16aa\	.
*	*X8va	*
4g\ 4f\ 4d\ 4c\ 4G\	16ggg\ 16gg\	.
.	16fff\ 16ff\	.
.	16eee\ 16ee\	.
.	16ddd\ 16dd\	.
4g\ 4f\ 4d\ 4c\ 4G\	16ccc\ 16cc\	.
.	16bb\ 16b\	.
.	16aa\ 16a\	.
.	16gg\JJ 16g\	.
=44	=44	=44
4C/ 4CC/	4ccc\ 4cc\	.
8.c\L 8.G\ 8.E\	8.cc\L 8.g\ 8.e\	.
16c\Jk 16G\ 16E\	16cc\Jk 16g\ 16e\	.
4c\ 4G\ 4E\	4cc\ 4g\ 4e\	.
4c\ 4G\ 4E\	4cc\ 4g\ 4e\	.
=45	=45	=45
4e\ 4G\ 4C\	1gg\TT	.
8.ee>\L 8.cc>\	.	.
16dd>\Jk 16g>\	.	.
4cc>\ 4e>\	.	.
4cc>\ 4e>\	.	.
!!LO:LB:g=original
=46	=46	=46
4B\ 4F\ 4GG\	1gg\TT	.
8.ff>\L 8.dd>\	.	.
16ee>\Jk 16cc>\	.	.
4dd>\ 4g>\	.	.
4dd>\ 4g>\	.	.
=47	=47	=47
*	*8va	*
4GG\	16aaaa\LL 16aaa\	.
.	16gggg\ 16ggg\	.
.	16ffff\ 16fff\	.
.	16eeee\ 16eee\	.
8.g\L 8.f\ 8.d\ 8.c\ 8.G\	16dddd\ 16ddd\	.
.	16cccc\ 16ccc\	.
.	16bbb\ 16bb\	.
16g\Jk 16f\ 16d\ 16c\ 16G\	16aaa\ 16aa\	.
*	*X8va	*
4g\ 4f\ 4d\ 4B\ 4G\	16ggg\ 16gg\	.
.	16fff\ 16ff\	.
.	16eee\ 16ee\	.
.	16ddd\ 16dd\	.
4g\ 4f\ 4d\ 4B\ 4G\	16ccc\ 16cc\	.
.	16bb\ 16b\	.
.	16aa\ 16a\	.
.	16gg\JJ 16g\	.
=48	=48	=48
4C/ 4CC/	4ccc\ 4cc\	.
8.c\L 8.G\ 8.E\	8.cc\L 8.g\ 8.e\	.
16c\Jk 16G\ 16E\	16cc\Jk 16g\ 16e\	.
4c\ 4G\ 4E\	4cc\ 4g\ 4e\	.
4c\ 4G\ 4E\	4cc\ 4g\ 4e\	.
=49||	=49||	=49||
*	*8va	*
!	!	!LO:DY:rj
16cc\LL 16c\	16eeee\LL 16eee\	ff
16b\ 16B\	16dddd\ 16ddd\	.
16a\ 16A\	16cccc\ 16ccc\	.
16g\ 16G\	16bbb\ 16bb\	.
*	*X8va	*
16f\ 16F\	16aaa\ 16aa\	.
16e\ 16E\	16ggg\ 16gg\	.
16d\ 16D\	16fff\ 16ff\	.
16c\ 16C\	16eee\ 16ee\	.
16B\ 16BB\	16ddd\ 16dd\	.
16A\ 16AA\	16ccc\ 16cc\	.
16G\ 16GG\	16bb\ 16b\	.
16F\ 16FF\	16aa\ 16a\	.
16E\ 16EE\	16gg\ 16g\	.
16D\ 16DD\	16ff\ 16f\	.
16C\ 16CC\	16ee\ 16e\	.
16BB\JJ 16BBB\	16dd\JJ 16d\	.
!!LO:LB:g=original
=50	=50	=50
4AA/ 4AAA/	4cc/ 4c/	.
*clefG2	*	*
!	!LO:TX:b:t=marcatissimo	!
4a/ 4f#X/ 4e-X/ 4A/	4ccc\ 4ff#X\ 4ee-X\ 4cc\	.
*	*8va	*
4aa\ 4ff#X\ 4ee-X\ 4a\	4cccc\ 4fff#X\ 4eee-X\ 4ccc\	.
*	*X8va	*
4a/ 4f#/ 4e-/ 4A/	4ccc\ 4ff#\ 4ee-\ 4cc\	.
*clefF4	*	*
=51	=51	=51
4G\	1gg\TT	pp
8.ff>\L 8.dd>\	.	.
16ee>\Jk 16cc>\	.	.
4dd>\ 4g>\	.	.
4dd>\ 4g>\	.	.
=52	=52	=52
4C\	1gg\TT	.
8.ee>\L 8.cc>\	.	.
16dd>\Jk 16g>\	.	.
4cc>\ 4e>\	.	.
4cc>\ 4e>\	.	.
=53	=53	=53
*	*8va	*
!	!	!LO:DY:rj
16cc\LL 16c\	16eeee\LL 16eee\	ff
16b\ 16B\	16dddd\ 16ddd\	.
16a\ 16A\	16cccc\ 16ccc\	.
16g\ 16G\	16bbb\ 16bb\	.
*	*X8va	*
16f\ 16F\	16aaa\ 16aa\	.
16e\ 16E\	16ggg\ 16gg\	.
16d\ 16D\	16fff\ 16ff\	.
16c\ 16C\	16eee\ 16ee\	.
16B\ 16BB\	16ddd\ 16dd\	.
16A\ 16AA\	16ccc\ 16cc\	.
16G\ 16GG\	16bb\ 16b\	.
16F\ 16FF\	16aa\ 16a\	.
16E\ 16EE\	16gg\ 16g\	.
16D\ 16DD\	16ff\ 16f\	.
16C\ 16CC\	16ee\ 16e\	.
16BB\JJ 16BBB\	16dd\JJ 16d\	.
!!LO:LB:g=original
=54	=54	=54
4AA/ 4AAA/	4cc\ 4c^^<\	.
*clefG2	*	*
4a/ 4f#X/ 4e-X/ 4A/	4ccc\ 4ff#X\ 4ee-X\ 4cc^^<\	.
*	*8va	*
4aa\ 4ff#X\ 4ee-X\ 4a\	4cccc\ 4fff#X\ 4eee-X\ 4ccc^^<\	.
*	*X8va	*
4a/ 4f#/ 4e-/ 4A/	4ccc\ 4ff#\ 4ee-\ 4cc^^<\	.
*clefF4	*	*
=55	=55	=55
4GG/	1gg\TT	pp
8.ff>\L 8.dd>\	.	.
16ee>\Jk 16cc>\	.	.
4dd>\ 4g>\	.	.
4dd>\ 4g>\	.	.
=56	=56	=56
4c\ 4G\ 4C\	4ccc\ 4gg\ 4cc\	.
8.e\L 8.c\	2.gTT</	.
16d\Jk 16G\	.	.
4c\ 4E\	.	.
4c\ 4E\	.	.
=57	=57	=57
4GGG/	1g/TT	.
8.f\L 8.d\	.	.
16e\Jk 16c\	.	.
4d\ 4G\	.	.
4d\ 4G\	.	.
=58	=58	=58
!	!LO:TX:b:t=cres:ext2=cd:problem=dynamics with extention lines	!LO:HP:t=cresc
4E\ 4GG\ 4CC\	4cc\ 4g\ 4c\	<
8.e\L 8.c\	2.gTT\	.
16d\Jk 16G\	.	.
4c\ 4E\	.	.
4c\ 4E\	.	.
!!LO:LB:g=original
=59	=59	=59
4E\ 4GG\ 4CC\	4cc\ 4g\ 4c\	.
8.e\L 8.c\	2.gTT\	.
16d\Jk 16G\	.	.
4c\ 4E\	.	.
4c\ 4E\	.	.
=60	=60	=60
4E\ 4GG\ 4CC\	4cc\ 4g\ 4c\	.
8.e\L 8.c\	2.gTT\	[[
16d\Jk 16G\	.	.
4c\ 4E\	.	.
4c\ 4E\	.	.
=61	=61	=61
*	*Xtuplet	*
19CCC/LLL	19ryy	.
19GGG/	19ryy	.
19CC/JJJ	19ryy	.
!	!LO:TX:a:t=md	!
19ryy	19EE</LLL	.
19ryy	19GG</	.
19ryy	19C</	.
19ryy	19E</	.
19ryy	19G</	.
19ryy	19c</	.
!	!LO:TX:b:t=con bravura.	!
19ryy	19e/	.
19ryy	19g/	.
19ryy	19cc/JJJ	.
19ryy	19ee\LLL	.
19ryy	19gg\	.
19ryy	19ccc\	.
19ryy	19eee\	.
19ryy	19ggg\	.
*	*8va	*
19ryy	19cccc/\	.
19ryy	19eeee\JJJ	.
=62	=62	=62
2r	4gggg\	.
*	*X8va	*
.	4r	.
4B\ 4G\ 4D\ 4GG\	4gg\ 4dd\ 4b\ 4g\ 4f\	.
4r	4r	.
=63	=63	=63
!	!LO:TX:b:t=Fine.	!
32qqE/ 32qqGG/ 32qqCC/	32qqcc\ 32qqg\ 32qqc\	.
1E/ 1GG/ 1CC/	1cc/ 1g/ 1c/	.
==	==	==
*-	*-	*-
!!!system-decoration: [(s1,s2)]
!!!RDF**kern: > = above
!!!RDF**kern: < = below
!!!RDF**dynam: p = p.
!!!RDF**dynam: f = f.
!!!RDF**dynam: p = pp.
!!!RDF**dynam: f = ff.
!!!EED: Leszek Kubiak
!!!EEV: 2021-05-21
!!!ENC: Berenika Jozajtis
!!!END: 2021-05-03
